X:9004
T:La mnagre allumeuse (P. Couton)
M:3/4
L:1/8
K:G
dc|B2 DG Bd|cd cB AG|FG FE DC|D2B,2CD|\
E2B,E GB|ABc4|1 F2 CD FA|GA B2:|2 d2 CD FA|G2G2z2||
|:cA GC EG|FG A2 F2|BA GB, DG|EF G2 E2|\
A2 AG FE|F2 D4|1 DE CD A,C|B,2 B,D GB:|2 DE CD FA|G2G2||
